src/Assets/Icons/General/AuthComponents/closedEye.svg

<svg width="16" height="16" viewBox="0 0 16 16" fill="none" xmlns="http://www.w3.org/2000/svg">
<path d="M13.4999 14C13.4342 14.0001 13.3692 13.9872 13.3085 13.962C13.2479 13.9369 13.1928 13.9 13.1465 13.8534L2.14645 2.85342C2.05664 2.75889 2.00731 2.63301 2.00898 2.50263C2.01065 2.37225 2.06319 2.24768 2.15539 2.15548C2.24759 2.06328 2.37216 2.01074 2.50254 2.00907C2.63292 2.0074 2.7588 2.05673 2.85333 2.14654L13.8533 13.1465C13.9232 13.2165 13.9708 13.3055 13.9901 13.4025C14.0093 13.4995 13.9994 13.6 13.9616 13.6913C13.9238 13.7826 13.8597 13.8607 13.7776 13.9156C13.6954 13.9706 13.5987 13.9999 13.4999 14ZM7.98927 12C6.6927 12 5.44239 11.6162 4.27302 10.8594C3.20833 10.1719 2.24989 9.18717 1.50114 8.01561V8.01311C2.12427 7.12029 2.80677 6.36529 3.53989 5.75654C3.54652 5.751 3.55193 5.74414 3.55578 5.7364C3.55962 5.72866 3.56182 5.7202 3.56223 5.71157C3.56264 5.70293 3.56126 5.69431 3.55817 5.68623C3.55507 5.67816 3.55034 5.67082 3.54427 5.66467L2.92177 5.04311C2.9107 5.03195 2.89585 5.02537 2.88016 5.02468C2.86446 5.02398 2.84908 5.02922 2.83708 5.03936C2.05833 5.69561 1.33552 6.50061 0.678328 7.44311C0.565261 7.60539 0.50299 7.79762 0.499429 7.99538C0.495868 8.19313 0.551177 8.38748 0.658328 8.55373C1.48364 9.84529 2.54583 10.9331 3.72958 11.699C5.06239 12.5625 6.49677 13 7.98927 13C8.79488 12.9975 9.59479 12.8647 10.358 12.6069C10.3681 12.6034 10.3771 12.5975 10.3843 12.5896C10.3914 12.5818 10.3964 12.5722 10.3988 12.5618C10.4012 12.5515 10.401 12.5407 10.398 12.5305C10.3951 12.5202 10.3896 12.5109 10.3821 12.5034L9.7077 11.829C9.69218 11.8139 9.67298 11.8031 9.652 11.7976C9.63101 11.7921 9.60896 11.7922 9.58802 11.7978C9.06575 11.9323 8.52857 12.0002 7.98927 12ZM15.3386 7.45623C14.5118 6.17748 13.439 5.09123 12.2365 4.31467C10.9061 3.45467 9.43739 2.99998 7.98927 2.99998C7.19219 3.0014 6.40104 3.13693 5.64895 3.40092C5.63893 3.40441 5.62996 3.41039 5.62289 3.4183C5.61582 3.42621 5.61088 3.43579 5.60854 3.44614C5.60619 3.45648 5.60652 3.46726 5.60949 3.47744C5.61246 3.48763 5.61798 3.49689 5.62552 3.50436L6.29895 4.17779C6.31463 4.1932 6.3341 4.20421 6.35538 4.2097C6.37667 4.21518 6.39903 4.21496 6.4202 4.20904C6.93176 4.07066 7.45933 4.00037 7.98927 3.99998C9.26083 3.99998 10.5074 4.38842 11.694 5.15623C12.7786 5.85623 13.7483 6.83998 14.499 7.99998C14.4995 8.0007 14.4998 8.00157 14.4998 8.00248C14.4998 8.00339 14.4995 8.00427 14.499 8.00498C13.9541 8.86277 13.2779 9.62971 12.4952 10.2778C12.4885 10.2833 12.483 10.2902 12.4791 10.2979C12.4752 10.3057 12.473 10.3142 12.4725 10.3229C12.4721 10.3315 12.4735 10.3402 12.4766 10.3483C12.4797 10.3564 12.4844 10.3638 12.4905 10.37L13.1124 10.9915C13.1234 11.0027 13.1382 11.0092 13.1538 11.01C13.1694 11.0107 13.1847 11.0056 13.1968 10.9956C14.0324 10.292 14.7557 9.46499 15.3418 8.54311C15.4454 8.38065 15.5001 8.19188 15.4996 7.99921C15.499 7.80654 15.4432 7.61809 15.3386 7.45623Z" fill="#A5A5B0"/>
<path d="M7.9999 5C7.77519 4.99988 7.55118 5.02504 7.33209 5.075C7.32102 5.0773 7.31079 5.08255 7.30247 5.09021C7.29415 5.09786 7.28807 5.10763 7.28486 5.11846C7.28166 5.1293 7.28145 5.14081 7.28426 5.15175C7.28707 5.1627 7.2928 5.17268 7.30084 5.18063L10.8193 8.69813C10.8272 8.70616 10.8372 8.71189 10.8481 8.7147C10.8591 8.71752 10.8706 8.71731 10.8814 8.7141C10.8923 8.71089 10.902 8.70481 10.9097 8.69649C10.9173 8.68818 10.9226 8.67794 10.9249 8.66688C11.0251 8.22751 11.025 7.77123 10.9246 7.33191C10.8243 6.89259 10.6262 6.48152 10.3452 6.12923C10.0642 5.77695 9.70744 5.49249 9.30141 5.297C8.89539 5.1015 8.45054 4.99999 7.9999 5ZM5.18052 7.30188C5.17258 7.29384 5.1626 7.28811 5.15165 7.2853C5.14071 7.28249 5.1292 7.28269 5.11836 7.2859C5.10753 7.28911 5.09776 7.29519 5.09011 7.30351C5.08245 7.31182 5.0772 7.32206 5.0749 7.33313C4.96157 7.82823 4.9758 8.34401 5.11626 8.83212C5.25671 9.32022 5.5188 9.76468 5.87795 10.1238C6.2371 10.483 6.68155 10.7451 7.16966 10.8855C7.65776 11.026 8.17354 11.0402 8.66865 10.9269C8.67972 10.9246 8.68995 10.9193 8.69827 10.9117C8.70658 10.904 8.71267 10.8943 8.71588 10.8834C8.71908 10.8726 8.71929 10.8611 8.71648 10.8501C8.71366 10.8392 8.70793 10.8292 8.6999 10.8213L5.18052 7.30188Z" fill="#A5A5B0"/>
</svg>

<svg xmlns="http://www.w3.org/2000/svg" width="16" height="16" fill="none"><path fill="#A5A5B0" d="M13.5 14a.5.5 0 0 1-.354-.147l-11-11a.5.5 0 0 1 .707-.706l11 11A.5.5 0 0 1 13.5 14m-5.51-2c-1.297 0-2.548-.384-3.717-1.14-1.065-.688-2.023-1.673-2.772-2.844v-.003c.623-.893 1.306-1.648 2.039-2.256a.063.063 0 0 0 .004-.092l-.622-.622a.06.06 0 0 0-.085-.004A12.4 12.4 0 0 0 .678 7.443a1 1 0 0 0-.02 1.11c.826 1.292 1.888 2.38 3.072 3.146C5.062 12.563 6.497 13 7.99 13a7.5 7.5 0 0 0 2.368-.393.06.06 0 0 0 .04-.045.062.062 0 0 0-.017-.058l-.673-.675a.13.13 0 0 0-.12-.031A6.4 6.4 0 0 1 7.989 12m7.349-4.544c-.827-1.279-1.9-2.365-3.103-3.141C10.907 3.455 9.438 3 7.99 3a7.1 7.1 0 0 0-2.34.4.063.063 0 0 0-.023.104l.673.674a.13.13 0 0 0 .121.031A6 6 0 0 1 7.99 4c1.27 0 2.517.388 3.704 1.156 1.085.7 2.054 1.684 2.805 2.844v.005a9.7 9.7 0 0 1-2.004 2.273.063.063 0 0 0-.004.092l.621.622a.06.06 0 0 0 .085.004 10.7 10.7 0 0 0 2.145-2.453 1.01 1.01 0 0 0-.003-1.087"/><path fill="#A5A5B0" d="M8 5q-.338 0-.668.075a.062.062 0 0 0-.031.106l3.518 3.517a.062.062 0 0 0 .106-.031A3 3 0 0 0 8 5M5.18 7.302a.062.062 0 0 0-.105.031 3 3 0 0 0 3.594 3.594.06.06 0 0 0 .047-.044.06.06 0 0 0-.016-.062z"/></svg>
